icons/skeletonui-dark.svg

<svg width="256" height="256" viewBox="0 0 256 256" fill="none" xmlns="http://www.w3.org/2000/svg">
<rect width="256" height="256" rx="60" fill="#282828" />
<path fill-rule="evenodd" clip-rule="evenodd" d="M127.774 78.6268C153.124 78.6268 174.764 87.4042 190.251 101.824C192.317 101.186 194.068 100.532 195.506 99.8609C199.898 97.8132 205.666 93.6149 212.807 87.2644C211.647 98.3255 210.402 106.446 209.072 111.625C208.359 114.399 207.257 117.758 205.762 121.7C209.819 129.084 212.697 137.057 214.293 145.329C220.403 175.953 209.94 189.495 185.662 197.054C185.844 197.964 185.987 198.941 186.088 199.988C186.956 208.946 182.426 223.413 176.987 223.413C173.411 223.413 171.085 218.431 168.59 211.16C167.81 219.581 163.973 229.246 159.525 229.246C155.78 229.246 153.407 223.786 150.774 215.95L150.403 214.843C149.787 212.972 149.15 210.98 148.474 208.907C148.305 209.706 148.128 210.525 147.944 211.354L147.719 212.354C145.845 220.536 143.124 229.246 138.73 229.246C133.629 229.246 136.427 213.186 127.826 206.381C84.22 208.757 47.5376 192.638 47.5376 146.128C47.5376 137.57 49.5634 129.209 53.2764 121.449C52.6294 120.182 52.0112 118.901 51.4224 117.606C48.5286 111.219 45.0534 101.548 41 88.6009C51.3702 96.3368 59.3235 100.946 64.86 102.428C65.4145 102.576 65.9909 102.706 66.5909 102.815C81.1139 88.2655 102.827 78.6268 127.774 78.6268ZM117.601 141.37C102.867 141.37 90.9228 152.969 90.9228 167.278C90.9228 181.587 102.867 193.186 117.601 193.186C132.333 193.186 144.277 181.587 144.277 167.278C144.277 153.144 132.623 141.653 118.137 141.374L117.601 141.37ZM155.465 173.73C151.007 173.73 148.656 183.249 148.656 187.52C148.656 190.855 149.775 192.695 151.598 193.031C156.024 193.442 154.674 186.992 156.877 186.992C159.226 186.992 161.977 193.59 164.279 192.695C167.013 191.067 165.968 187.521 165.024 184.717C161.699 177.672 159.923 173.73 155.465 173.73ZM118.218 145.11C130.941 145.11 141.254 154.99 141.254 167.177C141.254 179.364 130.939 189.244 118.218 189.244C117.436 189.244 116.662 189.207 115.899 189.132C127.533 188.02 136.615 178.614 136.615 167.177C136.615 155.74 127.531 146.334 115.9 145.22C116.662 145.147 117.436 145.11 118.218 145.11ZM184.47 139.852C174.317 139.852 166.088 150.038 166.088 162.604C166.088 175.171 174.317 185.359 184.47 185.359C194.623 185.359 202.853 175.171 202.853 162.606C202.853 150.038 194.623 139.852 184.47 139.852ZM185.063 143.607C193.541 143.607 200.412 152.099 200.412 162.576C200.412 173.051 193.541 181.543 185.063 181.543C184.29 181.543 183.518 181.472 182.758 181.331C190.14 179.956 195.801 172.083 195.801 162.576C195.801 153.069 190.14 145.194 182.758 143.819C183.518 143.678 184.29 143.607 185.063 143.607ZM188.593 70.6464C189.183 71.029 189.348 71.8161 188.967 72.406L185.947 77.0577C185.781 77.3132 185.529 77.5007 185.237 77.586C184.944 77.6714 184.631 77.649 184.354 77.5228L184.189 77.4318C184.049 77.341 183.928 77.2234 183.833 77.0859C183.739 76.9484 183.672 76.7936 183.638 76.6304C183.603 76.4671 183.601 76.2987 183.631 76.1346C183.661 75.9705 183.724 75.8139 183.815 75.674L186.835 71.0223C186.925 70.8822 187.043 70.7613 187.18 70.6665C187.318 70.5718 187.473 70.5051 187.636 70.4702C187.799 70.4353 187.968 70.4329 188.132 70.4631C188.296 70.4934 188.453 70.5557 188.593 70.6464ZM67.919 69.4195L68.037 69.5661L70.8212 73.5436C71.008 73.8198 71.0787 74.1584 71.0182 74.4862C70.9576 74.8141 70.7706 75.105 70.4975 75.2963C70.2245 75.4876 69.8871 75.5639 69.5583 75.5087C69.2295 75.4536 68.9355 75.2714 68.7398 75.0015L65.9555 71.024C65.7692 70.7613 65.6895 70.4377 65.7326 70.1185C65.7758 69.7994 65.9385 69.5085 66.1879 69.3047C66.4373 69.1009 66.7547 68.9994 67.0761 69.0207C67.3974 69.042 67.6987 69.1846 67.919 69.4195ZM131.933 27L134.814 51.3976L145.551 39.3286L145.829 69.3723L143.701 68.9004C137.492 67.5217 131.859 66.8358 126.806 66.8358C121.791 66.8358 117.09 67.5133 112.696 68.865L110.33 69.5948L112.268 32.0174L122.091 50.587L131.933 27ZM130.041 40.5337L122.46 58.6987L115.081 44.7488L114.041 64.8909L114.262 64.8369C118.138 63.8813 122.212 63.3925 126.486 63.3706L126.806 63.3689C131.438 63.3689 136.492 63.9116 141.975 64.9953L142.324 65.0644L142.169 48.3454L132.275 59.4639L130.041 40.5337ZM169.33 59.983C169.655 60.0759 169.929 60.2937 170.092 60.5886C170.256 60.8834 170.296 61.2312 170.203 61.5555L169.821 62.8886C169.736 63.1839 169.548 63.4387 169.29 63.6057C169.032 63.7727 168.723 63.8407 168.419 63.797L168.25 63.76C168.089 63.7141 167.939 63.6371 167.809 63.5333C167.678 63.4294 167.569 63.3008 167.487 63.1547C167.406 63.0087 167.355 62.8481 167.336 62.6821C167.317 62.5161 167.331 62.3481 167.377 62.1875L167.76 60.8544C167.852 60.5306 168.07 60.257 168.365 60.0936C168.659 59.9302 169.007 59.8904 169.33 59.983ZM92.5627 58.5504L93.2773 60.7515C93.3768 61.0579 93.3563 61.3905 93.2198 61.6823C93.0834 61.974 92.8414 62.2031 92.5425 62.3232C92.2437 62.4433 91.9104 62.4454 91.61 62.3292C91.3097 62.213 91.0647 61.987 90.9245 61.697L90.8605 61.5369L90.1459 59.3375C90.0477 59.0187 90.0789 58.674 90.2326 58.378C90.3864 58.0819 90.6504 57.8582 90.9677 57.7551C91.2849 57.652 91.63 57.6778 91.9284 57.8269C92.2269 57.976 92.4547 58.2365 92.5627 58.5521V58.5504Z" fill="#F4F2ED"/>
</svg>

<svg xmlns="http://www.w3.org/2000/svg" width="256" height="256" fill="none"><rect width="256" height="256" fill="#282828" rx="60"/><path fill="#F4F2ED" fill-rule="evenodd" d="M127.774 78.627c25.35 0 46.99 8.777 62.477 23.197q3.099-.957 5.255-1.963 6.589-3.071 17.301-12.597-1.74 16.593-3.735 24.361-1.069 4.162-3.31 10.075a80.9 80.9 0 0 1 8.531 23.629c6.11 30.624-4.353 44.166-28.631 51.725q.274 1.364.426 2.934c.868 8.958-3.662 23.425-9.101 23.425-3.576 0-5.902-4.982-8.397-12.253-.78 8.421-4.617 18.086-9.065 18.086-3.745 0-6.118-5.46-8.751-13.296l-.371-1.107c-.616-1.871-1.253-3.863-1.929-5.936-.169.799-.346 1.618-.53 2.447l-.225 1c-1.874 8.182-4.595 16.892-8.989 16.892-5.101 0-2.303-16.06-10.904-22.865-43.606 2.376-80.288-13.743-80.288-60.253 0-8.558 2.025-16.919 5.738-24.679a94 94 0 0 1-1.854-3.843Q47.081 108.024 41 88.601q15.555 11.604 23.86 13.827.831.223 1.73.387c14.524-14.55 36.237-24.188 61.184-24.188m-10.173 62.743c-14.734 0-26.678 11.599-26.678 25.908s11.944 25.908 26.678 25.908c14.732 0 26.676-11.599 26.676-25.908 0-14.134-11.654-25.625-26.14-25.904zm37.864 32.36c-4.458 0-6.809 9.519-6.809 13.79 0 3.335 1.119 5.175 2.942 5.511 4.426.411 3.076-6.039 5.279-6.039 2.349 0 5.1 6.598 7.402 5.703 2.734-1.628 1.689-5.174.745-7.978-3.325-7.045-5.101-10.987-9.559-10.987m-37.247-28.62c12.723 0 23.036 9.88 23.036 22.067s-10.315 22.067-23.036 22.067q-1.174 0-2.319-.112c11.634-1.112 20.716-10.518 20.716-21.955s-9.084-20.843-20.715-21.957q1.144-.11 2.318-.11m66.252-5.258c-10.153 0-18.382 10.186-18.382 22.752 0 12.567 8.229 22.755 18.382 22.755s18.383-10.188 18.383-22.753c0-12.568-8.23-22.754-18.383-22.754m.593 3.755c8.478 0 15.349 8.492 15.349 18.969 0 10.475-6.871 18.967-15.349 18.967a12.6 12.6 0 0 1-2.305-.212c7.382-1.375 13.043-9.248 13.043-18.755s-5.661-17.382-13.043-18.757a12.6 12.6 0 0 1 2.305-.212m3.53-72.96c.59.382.755 1.17.374 1.759l-3.02 4.652a1.27 1.27 0 0 1-1.593.465l-.165-.091a1.28 1.28 0 0 1-.551-.802 1.27 1.27 0 0 1 .177-.956l3.02-4.652a1.27 1.27 0 0 1 1.297-.559c.164.03.321.093.461.183M67.919 69.418l.118.147 2.784 3.978A1.27 1.27 0 0 1 68.74 75l-2.784-3.977a1.271 1.271 0 0 1 1.963-1.605M131.933 27l2.881 24.398 10.737-12.07.278 30.044-2.128-.472q-9.315-2.065-16.895-2.064-7.52 0-14.11 2.029l-2.366.73 1.938-37.578 9.823 18.57zm-1.892 13.534-7.581 18.165-7.379-13.95-1.04 20.142.221-.054q5.814-1.434 12.224-1.466l.32-.002q6.946 0 15.169 1.626l.349.07-.155-16.72-9.894 11.119zm39.289 19.449a1.27 1.27 0 0 1 .873 1.573l-.382 1.333a1.27 1.27 0 0 1-1.402.908l-.169-.037a1.3 1.3 0 0 1-.763-.605 1.27 1.27 0 0 1-.11-.968l.383-1.333a1.27 1.27 0 0 1 1.57-.871M92.563 58.55l.714 2.202a1.27 1.27 0 0 1-2.353.945l-.064-.16-.714-2.2a1.27 1.27 0 0 1 2.417-.785z" clip-rule="evenodd"/></svg>
